!!!COM: Charles Gounod
!!!CNT: Francais
!!!TXO: Francais
!!!OTL: Le Vallon
!!!LYR: Alphonse de Lamartine
!!!ENC: Jacob Pegg
!!!YOR: Romantic French Song 1830-1870 -David Tunley, ed.,
!!!YOR: New York: Garland Publishing, Inc., 1995, Vol. 5
!!!ODT: 1840-2/
!!NB: Vocal melody and text only encoded.
!!NB: First instance of melodic material only encoded.
**kern	**silbe
*clef G2	*
*k[b-]	*
*M4/4	*
*MM[andante]	*
!!created: 5/18/03 23:20
!!proofed and posted: 5/27/03 23:46
!!edit time: 58 min.
=8	=8
2r	.
4r	.
8r	.
{8a	{Mon
=9	=9
2a}	coeur,}
8r	.
{8a	{las-
8.a	-se/
16a	de
=10	=10
2a}	tout,}
2r	.
=11	=11
{2a	{me^-
8a	-me
8a	de
8.a	l'es-
16a	-pe-
=12	=12
2a	-ran-
8a}	-ce,}
8r	.
{8a	{N'i-
8a	-ra
=13	=13
2ccn	plus
4.ccn	de
8ccn	ses
=14	=14
[2cc#	voeux
4cc#]}	|}
4r	.
=15	=15
{4dd	{im-
8dd	-por-
8dd	-tu-
4.f	-ner
8g	le
=16	=16
2a}	sort!}
4r	.
{8a	{Pre^-
8a	-tez~
=17	=17
2.a	~moi
8.a	seu-
16a	-le-
=18	=18
[2cc	-ment,
8cc]}	|}
8r	.
8r	.
{8cc	{val-
=19	=19
[2b-	-lons
8b-]	|
8b-	de
8cc	mon
8b-	en-
=20	=20
2dd	-fan-
8dd}	-ce,}
8r	.
{8dd	{Un
8dd	a-
=21	=21
2cc	-si-
4.ff	-le
8ee	d'un
=22	=22
(4ee	jour
4dd)}	|}
4r	.
{8f	{pour
8g	at-
=23	=23
2a	-ten-
4.cc	-dre
8cc	la
=24	=24
[2a	mort!
8a]}	|}
8r	.
4r	.
!!25-31 piano simply only
=32	=32
2r	.
4r	.
8r	.
{8f	{D'i-
=33	=33
[2f	-ci
8f]	|
8f	je
8f	vois
8g	la
=34	=34
2a	vi-
4a}	-e,}
4r	.
=35	=35
{4.a	{a\
8a	tra-
4bn	-vers
8.bn	un
16bn	nu-
=36	=36
2cc	-a-
4cc}	-ge,}
4r	.
=37	=37
{4b-	{S'e/-
8.b-	-va-
16b-	-nou-
4.cc	-ir
8a	pour
=38	=38
[2dd	moi
8dd]}	|}
8r	.
{(8cc	{dans
8b-)	|
=39	=39
[2a	l'om-
8a]	|
8a	-bre
8g	du
8f	pas-
=40	=40
[2e	-se/!
4e]}	|}
4r	.
=41	=41
{8g#	{L'a-
8g#	-mour
2bn	seul
8g#	est
8a	res-
=42	=42
[2f#	-te/:
4f#]}	|}
4r	.
=43	=43
{4a	{com-
8a	-me u-
8a	-ne
4.cc#	gran-
8a	-de i-
=44	=44
2bn	-ma-
8g#}	-ge}
8r	.
{8bn	{Sur-
8bn	-vit
=45	=45
2dd	seule
4.dd	au
8dd	re/-
=46	=46
2cc	-veil
4.a	dans
8a	un
=47	=47
2f	songe
4.d	ef-
8d	-fa-
=48	=48
[2a	-ce/!
8a]}	|}
8r	.
4r	.
=49	=49
*k[f#c#]	*
{4a	{Re-
8.dd	-po-
16a	-se~
4.f#	~toi,
8b	mon
=50	=50
4b	a^-
4a}	-me,}
2r	.
=51	=51
{4dd	{en
8dd	ce
8dd	der-
(8ee	-ni-
8dd)	-er
(8a	a-
8f#)	|
=52	=52
4cc#	-si-
4b}	-le,}
4r	.
{4g#	{Ain-
=53	=53
[2a	-si
8a]	|
8a	qu'un
8b	vo-
8ccn	-ya-
=54	=54
[2b	-geur,
8b]}	|}
8r	.
{8ee	{qui,
8dd	le
=55	=55
2cc#	coeur
(4dd	plein
8a)	|
8f#	d'es-
=56	=56
2e}	-poir,}
4r	.
{4a	{S'as-
=57	=57
8dd	-sied,
8f#	a-
8f#	-vant
8g	d'en-
8f#}	-trer}
8r	.
{4dd	{aux
=58	=58
8dd	por-
8g	-tes
8g	de
8a	la
4g}	ville,}
{8dd	{Et
8ee	res-
=59	=59
4dd	-pire
8.a	un
16b	mo-
4a	-ment
4dd	l'air
=60	=60
8dd	em-
8b	-bau-
8cc#	-me/
8dd	du
[4ee	soir.
8ee]}	|}
8r	.
=61	=61
{4ee	{Et
(8dd	res-
8cc#)	|
4ff#	-pire
8.dd	un
16b	mo-
=62	=62
4a}	-ment}
8r	.
{8f#	{l'air
8g	em-
8a	-bau-
8b	-me/
8cc#	du
=63	=63
[2dd	soir!
8dd]}	|}
8r	.
4r	.
!!extra strophe - melodic equivalent of m. 32-here, follows.
*-	*-
